X: 1408
T: An T-Seann Cailleach
R: reel
M: 4/4
K: Adorian
|:B|GAAB eAAa|gefd BGGB|A2 BA eAAa|gefd e2 d:|
|:B|AaaA aeef|g2 ga efge|d2 ge aeeg|ABgf e2 d:|

